svgs/duotone/block-quote.svg

<svg xmlns="http://www.w3.org/2000/svg" viewBox="0 0 512 512"><!-- Font Awesome Pro 6.0.0-alpha2 by @fontawesome - https://fontawesome.com License - https://fontawesome.com/license (Commercial License) --><defs><style>.fa-secondary{opacity:.4}</style></defs><path d="M512 96C512 78.326 497.674 64 480 64H32C14.326 64 0 78.326 0 96S14.326 128 32 128H480C497.674 128 512 113.674 512 96ZM480 224H192C174.326 224 160 238.326 160 256S174.326 288 192 288H480C497.674 288 512 273.674 512 256S497.674 224 480 224ZM480 384H192C174.326 384 160 398.326 160 416S174.326 448 192 448H480C497.674 448 512 433.674 512 416S497.674 384 480 384Z" class="fa-secondary"/><path d="M32 208C14.326 208 0 222.326 0 240V432C0 449.674 14.326 464 32 464S64 449.674 64 432V240C64 222.326 49.674 208 32 208Z" class="fa-primary"/></svg>

<svg xmlns="http://www.w3.org/2000/svg" viewBox="0 0 512 512"><!--! Font Awesome Pro 6.0.0-alpha3 by @fontawesome - https://fontawesome.com License - https://fontawesome.com/license (Commercial License) --><defs><style>.fa-secondary{opacity:.4}</style></defs><path class="fa-primary" d="M32 208c-17.67 0-32 14.33-32 32v192c0 17.67 14.33 32 32 32s32-14.33 32-32v-192C64 222.3 49.67 208 32 208z"/><path class="fa-secondary" d="M512 96c0-17.67-14.33-32-32-32H32C14.33 64 0 78.33 0 96s14.33 32 32 32h448C497.7 128 512 113.7 512 96zM480 224H192C174.3 224 160 238.3 160 256s14.33 32 32 32h288c17.67 0 32-14.33 32-32S497.7 224 480 224zM480 384H192c-17.67 0-32 14.33-32 32s14.33 32 32 32h288c17.67 0 32-14.33 32-32S497.7 384 480 384z"/></svg>
